_inc/systems/logos/plugnplay.svg

<?xml version="1.0" encoding="UTF-8" standalone="no"?><svg viewBox="0 0 302 152" version="1.1" id="svg1" xmlns="http://www.w3.org/2000/svg" xmlns:svg="http://www.w3.org/2000/svg"><path fill="currentColor" stroke="currentColor" stroke-width=".09" d="M34.2 1.1C38.8.8 43.4.5 48 .7 62.7.8 77.4.5 92.1.8c1 3 2.3 5.8 3.4 8.8 4.3 13.4 9.3 26.7 13.9 40 1 3.7 2.7 7 4 10.5C120.5 40.3 127 20.2 134.7.5c.9.1 2.9.4 3.8.5-1.1 3.4-1.7 7-3.1 10.3-6.9 19-13.2 38.2-20.3 57.1l-4-.3c-7.4-21-14.6-42-22.3-62.8-8.8.1-17.7.1-26.5 0 .1 21 .1 42 0 62.9h-4.5q-.3-31.2 0-62.4c-7.9-.3-15.7-.2-23.5-.1 0-1.5-.1-3.1-.1-4.6ZM6.6 85.7c3.7-2.3 8.2-2 12.4-2.1 6 .1 12-.3 18 .3 4 .4 8 2.5 10 6.1 2.7 4.9 1.8 10.8 1.9 16.2-4.6.1-9.3.1-14 0-.1-2.9-.3-5.8-.5-8.7-6.6-.3-13.3-.3-20 0-.1 13.3-.2 26.7 0 40.1 6.7-.1 13.3.8 19.9-.3.6-3.7.5-7.5.5-11.2l-12.1-.3c0-4.2.1-8.4.1-12.6 8.6 0 17.3-.1 26 0 0 7.3.3 14.6.2 21.9-.1 2.9-.2 5.9-1.3 8.6-1.3 3.5-4.5 6-8.1 6.9-4.1 1-8.4.8-12.6.8-4.7-.1-9.3.2-14-.3-2.9-.3-5.9-.9-8.2-2.9-2.5-2.3-3.7-5.5-4.8-8.6V95.4c1.3-3.7 3.1-7.6 6.6-9.7Zm68.5 2.5c.7-1.5.9-4 3-4 4.9-.6 9.8 0 14.6.1 6.8 22.3 14.5 44.2 21.3 66.5-5 .2-10 .1-15 0-1.4-4.8-3.2-9.6-4.3-14.5-7 0-14-.1-21 .2-1.2 4.7-2.7 9.4-4 14.2-4.9.2-9.8.3-14.7.1 6.5-20.9 13.5-41.7 20.1-62.6m2.9 34.5h12.8c-2.2-7.5-4.5-15-6.3-22.7-2 7.6-4.6 15-6.5 22.7Zm44.8-38.6c5-.1 10 0 15 .1 5.5 12.6 11.2 25.1 16.6 37.7 5.9-12.4 11.1-25.2 16.8-37.7 5-.1 10-.2 15-.1.3 18.3 0 36.6.2 54.9 0 4-.2 7.9-.2 11.9h-13.1c-.4-13.7.4-27.4-.3-41.1-4.9 9.8-8.2 20.3-13.2 29.9-3.3 1.1-6.9 1.1-10.2 0-2.2-3.5-3.3-7.5-5-11.2-2.7-6.2-5.3-12.5-8.1-18.6-.9 13.6 0 27.3-.4 40.9-4.4.1-8.7.1-13.1.1-.3-18 .1-35.9-.2-53.9 0-4.3.1-8.6.2-12.9Zm78.3 0c14.7-.1 29.4 0 44.1 0 .1 4.4.2 8.7 0 13.1-10 .2-20 .1-29.9 0 0 4.3 0 8.5-.1 12.8 8 .2 16 0 24 .1.1 4.3.2 8.7 0 13.1-8 .3-16 .1-23.9 0 0 4.9 0 9.7-.1 14.6 10-.1 20-.2 30 0 .2 4.3.1 8.7 0 13.1-14.7 0-29.4.1-44 0-.2-22.3-.2-44.5-.1-66.8Zm53.7 8.5c2-4.8 6.8-8.8 12.2-8.8 6.6-.3 13.4-.2 20-.1 4.2.1 8.5 1.9 10.9 5.5 3.4 4.6 2.4 10.7 2.3 16q-6.6.3-13.2 0c-.1-2.5-.3-5-.8-7.5-5.7-.7-11.7-.9-17.4.1-1 3-.8 6.4-.1 9.5 1.1 1.1 2.7 1.3 4.2 1.8 6.7 1.6 13.7 2.2 20.2 4.8 4.3 1.6 7.7 5.5 8.1 10.2q.75 8.4 0 16.8c-.6 5.3-5.3 9.3-10.4 10-5.2.8-10.5.3-15.8.5-4.8-.1-10 .3-14.4-2-3.3-1.8-5.4-5.3-6-9-.5-3.8-.3-7.7-.4-11.5 4.5-.3 9-.4 13.5 0 .2 2.8.4 5.7 1 8.5 5.1.6 10.2.4 15.3.3 1.4-.1 3.7 0 3.6-2 .3-2.9.6-6.1-.5-8.9-1.4-1.1-3.3-1.4-4.9-1.8-5.8-1.3-11.7-2-17.3-3.9-3.9-1.2-7.5-3.8-9.6-7.3-1.3-2.7-.9-5.9-1.1-8.8.2-4.1-.3-8.3.6-12.4Z" id="path1" style="fill:#ffffff"/></svg>

<?xml version="1.0" encoding="UTF-8" ?>
<!DOCTYPE svg PUBLIC "-//W3C//DTD SVG 1.1//EN" "http://www.w3.org/Graphics/SVG/1.1/DTD/svg11.dtd">
<svg width="302pt" height="152pt" viewBox="0 0 302 152" version="1.1" xmlns="http://www.w3.org/2000/svg">
<path fill="#ffffff" stroke="#ffffff" stroke-width="0.09375" opacity="1.00" d=" M 34.2 1.1 C 38.8 0.8 43.4 0.5 48.0 0.7 C 62.7 0.8 77.4 0.5 92.1 0.8 C 93.1 3.8 94.4 6.6 95.5 9.6 C 99.8 23.0 104.8 36.3 109.4 49.6 C 110.4 53.3 112.1 56.6 113.4 60.1 C 120.5 40.3 127.0 20.2 134.7 0.5 C 135.6 0.6 137.6 0.9 138.5 1.0 C 137.4 4.4 136.8 8.0 135.4 11.3 C 128.5 30.3 122.2 49.5 115.1 68.4 C 113.8 68.3 112.4 68.2 111.1 68.1 C 103.7 47.1 96.5 26.1 88.8 5.3 C 80.0 5.4 71.1 5.4 62.3 5.3 C 62.4 26.3 62.4 47.3 62.3 68.2 C 60.8 68.2 59.3 68.2 57.8 68.2 C 57.6 47.4 57.6 26.6 57.8 5.8 C 49.9 5.5 42.1 5.6 34.3 5.7 C 34.3 4.2 34.2 2.6 34.2 1.1 Z" />
<path fill="#ffffff" stroke="#ffffff" stroke-width="0.09375" opacity="1.00" d=" M 6.6 85.7 C 10.3 83.4 14.8 83.7 19.0 83.6 C 25.0 83.7 31.0 83.3 37.0 83.9 C 41.0 84.3 45.0 86.4 47.0 90.0 C 49.7 94.9 48.8 100.8 48.9 106.2 C 44.3 106.3 39.6 106.3 34.9 106.2 C 34.8 103.3 34.6 100.4 34.4 97.5 C 27.8 97.2 21.1 97.2 14.4 97.5 C 14.3 110.8 14.2 124.2 14.4 137.6 C 21.1 137.5 27.7 138.4 34.3 137.3 C 34.9 133.6 34.8 129.8 34.8 126.1 C 30.8 126.0 26.8 125.9 22.7 125.8 C 22.7 121.6 22.8 117.4 22.8 113.2 C 31.4 113.2 40.1 113.1 48.8 113.2 C 48.8 120.5 49.1 127.8 49.0 135.1 C 48.9 138.0 48.8 141.0 47.7 143.7 C 46.4 147.2 43.2 149.7 39.6 150.6 C 35.5 151.6 31.2 151.4 27.0 151.4 C 22.3 151.3 17.7 151.6 13.0 151.1 C 10.1 150.8 7.1 150.2 4.8 148.2 C 2.3 145.9 1.1 142.7 0.0 139.6 L 0.0 95.4 C 1.3 91.7 3.1 87.8 6.6 85.7 Z" />
<path fill="#ffffff" stroke="#ffffff" stroke-width="0.09375" opacity="1.00" d=" M 75.1 88.2 C 75.8 86.7 76.0 84.2 78.1 84.2 C 83.0 83.6 87.9 84.2 92.7 84.3 C 99.5 106.6 107.2 128.5 114.0 150.8 C 109.0 151.0 104.0 150.9 99.0 150.8 C 97.6 146.0 95.8 141.2 94.7 136.3 C 87.7 136.3 80.7 136.2 73.7 136.5 C 72.5 141.2 71.0 145.9 69.7 150.7 C 64.8 150.9 59.9 151.0 55.0 150.8 C 61.5 129.9 68.5 109.1 75.1 88.2 M 78.0 122.7 C 82.3 122.7 86.5 122.7 90.8 122.7 C 88.6 115.2 86.3 107.7 84.5 100.0 C 82.5 107.6 79.9 115.0 78.0 122.7 Z" />
<path fill="#ffffff" stroke="#ffffff" stroke-width="0.09375" opacity="1.00" d=" M 122.8 84.1 C 127.8 84.0 132.8 84.1 137.8 84.2 C 143.3 96.8 149.0 109.3 154.4 121.9 C 160.3 109.5 165.5 96.7 171.2 84.2 C 176.2 84.1 181.2 84.0 186.2 84.1 C 186.5 102.4 186.2 120.7 186.4 139.0 C 186.4 143.0 186.2 146.9 186.2 150.9 C 181.8 150.9 177.5 150.9 173.1 150.9 C 172.7 137.2 173.5 123.5 172.8 109.8 C 167.9 119.6 164.6 130.1 159.6 139.7 C 156.3 140.8 152.7 140.8 149.4 139.7 C 147.2 136.2 146.1 132.2 144.4 128.5 C 141.7 122.3 139.1 116.0 136.3 109.9 C 135.4 123.5 136.3 137.2 135.9 150.8 C 131.5 150.9 127.2 150.9 122.8 150.9 C 122.5 132.9 122.9 115.0 122.6 97.0 C 122.6 92.7 122.7 88.4 122.8 84.1 Z" />
<path fill="#ffffff" stroke="#ffffff" stroke-width="0.09375" opacity="1.00" d=" M 201.1 84.1 C 215.8 84.0 230.5 84.1 245.2 84.1 C 245.3 88.5 245.4 92.8 245.2 97.2 C 235.2 97.4 225.2 97.3 215.3 97.2 C 215.3 101.5 215.3 105.7 215.2 110.0 C 223.2 110.2 231.2 110.0 239.2 110.1 C 239.3 114.4 239.4 118.8 239.2 123.2 C 231.2 123.5 223.2 123.3 215.3 123.2 C 215.3 128.1 215.3 132.9 215.2 137.8 C 225.2 137.7 235.2 137.6 245.2 137.8 C 245.4 142.1 245.3 146.5 245.2 150.9 C 230.5 150.9 215.8 151.0 201.2 150.9 C 201.0 128.6 201.0 106.4 201.1 84.1 Z" />
<path fill="#ffffff" stroke="#ffffff" stroke-width="0.09375" opacity="1.00" d=" M 254.8 92.6 C 256.8 87.8 261.6 83.8 267.0 83.8 C 273.6 83.5 280.4 83.6 287.0 83.7 C 291.2 83.8 295.5 85.6 297.9 89.2 C 301.3 93.8 300.3 99.9 300.2 105.2 C 295.8 105.4 291.4 105.4 287.0 105.2 C 286.9 102.7 286.7 100.2 286.2 97.7 C 280.5 97.0 274.5 96.8 268.8 97.8 C 267.8 100.8 268.0 104.2 268.7 107.3 C 269.8 108.4 271.4 108.6 272.9 109.1 C 279.6 110.7 286.6 111.3 293.1 113.9 C 297.4 115.5 300.8 119.4 301.2 124.1 C 301.7 129.7 301.7 135.3 301.2 140.9 C 300.6 146.2 295.9 150.2 290.8 150.9 C 285.6 151.7 280.3 151.2 275.0 151.4 C 270.2 151.3 265.0 151.7 260.6 149.4 C 257.3 147.6 255.2 144.1 254.6 140.4 C 254.1 136.6 254.3 132.7 254.2 128.9 C 258.7 128.6 263.2 128.5 267.7 128.9 C 267.9 131.7 268.1 134.6 268.7 137.4 C 273.8 138.0 278.9 137.8 284.0 137.7 C 285.4 137.6 287.7 137.7 287.6 135.7 C 287.9 132.8 288.2 129.6 287.1 126.8 C 285.7 125.7 283.8 125.4 282.2 125.0 C 276.4 123.7 270.5 123.0 264.9 121.1 C 261.0 119.9 257.4 117.3 255.3 113.8 C 254.0 111.1 254.4 107.9 254.2 105.0 C 254.4 100.9 253.9 96.7 254.8 92.6 Z" />
</svg>
